!!!OTL: Der verkleidete Markgrafensohn Es freit ein reicher Kaufmannssohn,
!!!ARE: Europa, Mitteleuropa, Lothringen, Weiler
!!!SCT: D0033
!!!YEM: Copyright 1995, estate of Helmut Schaffrath.
**kern
*ICvox
*Ivox
!! Mixed meters:  4/8; 3/8; 2/8
*M3/8
*k[f#]
*G:
{8d
8d
8d
=1
*M4/8
4g
8f#
8e
=2
8f#
8g
[4a
=3
*M3/8
4.a]}
=4
{8a
=5
*M4/8
8b
8a
8g
8f#
=6
*M3/8
4e
8d}
=7
{8a
=8
8a
8a
8b
=9
*M4/8
8a
8a
4dd
=10
*M3/8
8cc
8b
8a
=11
4g
8a}
=12
{8b
=13
*M2/8
8cc
8a
=14
*M3/8
8b
8a
8g
=15
4.f#
=16
4.g}
==
!!!AGN: Ballade
!! Inzipit = Variante zum Lied
!!!ONB: ESAC (Essen Associative Code) Database: DVA
!!!AMT: irregular
!!!AIN: vox
!!!EED: Helmut Schaffrath
!!!EEV: 1.0
*-
